source/img/icons/icon-gps-location.svg

<svg width="24" height="24" viewBox="0 0 24 24" fill="none" xmlns="http://www.w3.org/2000/svg">
<path d="M12 22C6.48593 22 2 17.5141 2 12.0001C2 6.48599 6.48593 2 12 2C17.5141 2 22 6.48599 22 12.0001C22 17.5141 17.5141 22 12 22ZM12.6802 3.38646V7.51266C12.6802 7.88808 12.3757 8.19259 12 8.19259C11.6243 8.19259 11.3198 7.88815 11.3198 7.51266V3.38646C7.09698 3.71697 3.71734 7.09704 3.38709 11.3201H7.51063C7.88622 11.3201 8.19087 11.6245 8.19087 12C8.19087 12.3755 7.88622 12.6799 7.51063 12.6799H3.38709C3.71734 16.903 7.09698 20.283 11.3198 20.6135V16.4873C11.3198 16.1119 11.6243 15.8074 12 15.8074C12.3757 15.8074 12.6802 16.1119 12.6802 16.4873V20.6135C16.9031 20.283 20.2827 16.903 20.6129 12.6799H16.4894C16.1138 12.6799 15.8091 12.3755 15.8091 12C15.8091 11.6245 16.1137 11.3201 16.4894 11.3201H20.6129C20.2826 7.09697 16.903 3.71697 12.6802 3.38646Z" fill="#F2890F"/>
</svg>

<svg width="24" height="24" fill="none" xmlns="http://www.w3.org/2000/svg"><path d="M12 22C6.486 22 2 17.514 2 12S6.486 2 12 2s10 4.486 10 10-4.486 10-10 10zm.68-18.614v4.127a.68.68 0 01-1.36 0V3.386c-4.223.331-7.603 3.711-7.933 7.934h4.124a.68.68 0 110 1.36H3.387a8.653 8.653 0 007.933 7.933v-4.126a.68.68 0 011.36 0v4.127a8.654 8.654 0 007.933-7.934h-4.124a.68.68 0 110-1.36h4.124c-.33-4.223-3.71-7.603-7.933-7.934z" fill="#F2890F"/></svg>
